X: 852
T: The Best in the Bag
N:"Collected by F.O'Neill"
B:O'Neill's 852
Z:Transcribed by Dan G. Petersen, dangp@post6.tele.dk
M:6/8
L:1/8
K:G
D|GAG AGA|Bge dBA|GFG AGA|BGE (E2{F/E/}D)|
GAG AGA|Bge dBG|(c2{d/c/}A) BGE|GAG G2:|
d|gfg efg|fag fed|gfg efg|afd d2(3(d/e/f/)|
g2e a2f|g2e dBG|(c2{d/c/}A) BGE|GAG G2:|


